X:1905
T:Farmer's Jamboree
O:england
R:Jig
C:John Burt
M:6/8
L:1/8
K:A
c/2d/2|"A"efe "E7"dcB|"A"A2c E2c|c^Bc "Edim"edc|"E7"B3 -B2c/2d/2|
"A"efe "E7"dcB|"A"A2c E2e|"E7"gfe dcB|"A"A3 -A2:|
|:c/2d/2|"A"e2c a2g|"D"f2d "Bm"b2a|"E7"gBB Bdf|"A"e3 -e2c/2d/2|
"A"e2c a2g|"D"f2d "Bm"b2a|"E7"gfe dcB|"A"A3 -A2:|


